_includes/icons/color-pictures-folder.svg

<svg fill="#666" height="50" viewBox="0 0 48 48" width="50" xmlns="http://www.w3.org/2000/svg"><path d="m40 12h-18l-4-4h-10c-2.199219 0-4 1.800781-4 4v8h40v-4c0-2.199219-1.800781-4-4-4z" fill="#ffa000"/><path d="m40 12h-32c-2.199219 0-4 1.800781-4 4v20c0 2.199219 1.800781 4 4 4h32c2.199219 0 4-1.800781 4-4v-20c0-2.199219-1.800781-4-4-4z" fill="#ffca28"/><path d="m36 20c0 1.65625-1.34375 3-3 3s-3-1.34375-3-3 1.34375-3 3-3 3 1.34375 3 3z" fill="#f57c00"/><path d="m20 21.898438-9 13.101562h18z" fill="#ef6c00"/><path d="m31 27.5-6 7.5h12z" fill="#f57c00"/></svg>

<svg xmlns="http://www.w3.org/2000/svg" viewBox="0 0 48 48" width="50" height="50" fill="#666"><path d="M 40 12 L 22 12 L 18 8 L 8 8 C 5.800781 8 4 9.800781 4 12 L 4 20 L 44 20 L 44 16 C 44 13.800781 42.199219 12 40 12 Z" fill="#ffa000"/><path d="M 40 12 L 8 12 C 5.800781 12 4 13.800781 4 16 L 4 36 C 4 38.199219 5.800781 40 8 40 L 40 40 C 42.199219 40 44 38.199219 44 36 L 44 16 C 44 13.800781 42.199219 12 40 12 Z" fill="#ffca28"/><path d="M 36 20 C 36 21.65625 34.65625 23 33 23 C 31.34375 23 30 21.65625 30 20 C 30 18.34375 31.34375 17 33 17 C 34.65625 17 36 18.34375 36 20 Z" fill="#f57c00"/><path d="M 20 21.898438 L 11 35 L 29 35 Z" fill="#ef6c00"/><path d="M 31 27.5 L 25 35 L 37 35 Z" fill="#f57c00"/></svg>
